<?xml version="1.0" encoding="UTF-8"?>
<map version="1.10" tiledversion="1.12.2" orientation="orthogonal" renderorder="right-down" width="64" height="32" tilewidth="16" tileheight="16" infinite="0" nextlayerid="5" nextobjectid="9">
 <tileset firstgid="1" source="tilesets/adve.tsx"/>
 <layer id="1" name="Tile Layer 1" width="64" height="32">
  <data encoding="csv">
252,252,252,252,1,1,1,1,1,1,1,1,68,92,68,1,1,1,1,1,1,1,1,308,1,1,114,115,115,116,1,1,1,1,1,1,1,1,1,308,1,1,356,358,1,1,1,1,1,1,1,1,1,1,1,1,1,1,252,252,252,252,252,252,
252,252,252,252,1,1,1,1,2,1,4,1,1,91,1,1,1,1,12,13,11,11,1,1,1,1,138,1,24,140,1,1,1,1,1,1,1,1,1,1,1,211,212,382,358,1,1,1,1,1,1,1,1,1,1,1,1,1,252,252,252,252,252,252,
252,252,252,252,1,1,171,194,195,196,30,1,1,91,6,1,1,34,36,38,66,68,67,69,70,194,196,196,195,196,198,173,1,1,1,1,1,1,1,34,37,234,235,212,37,236,1,1,1,309,1,1,1,1,1,1,1,1,252,252,252,252,252,252,
252,252,252,252,1,1,194,225,99,53,56,27,35,36,38,163,163,210,60,62,84,84,23,84,194,225,220,220,1,1,224,196,198,247,1,1,1,1,1,212,211,258,259,211,211,212,66,69,69,69,67,69,69,306,1,1,1,1,252,252,252,252,252,252,
252,252,252,252,1,241,242,52,75,99,75,51,99,76,62,1,1,58,1,254,43,42,42,43,274,1,1,1,1,1,1,1,270,1,1,1,1,1,1,211,236,211,211,210,212,86,381,358,380,1,1,1,1,330,1,1,1,1,252,252,252,252,252,252,
252,252,252,252,1,1,74,77,31,101,32,123,125,123,126,115,115,106,107,254,243,179,180,1,274,1,219,1,1,1,1,220,270,115,115,116,1,1,1,1,130,131,131,212,212,134,356,358,1,1,1,1,1,354,1,1,1,1,252,252,252,252,252,252,
252,252,252,252,1,1,122,123,53,99,102,76,146,138,140,1,1,130,133,211,205,204,205,205,233,243,1,1,1,1,1,1,270,1,1,140,1,1,238,238,238,238,1,1,307,358,358,1,1,1,1,1,1,354,1,1,1,1,252,252,252,252,252,252,
252,252,252,252,1,381,380,357,74,32,126,1,1,138,140,1,1,1,1,130,293,291,291,292,292,293,201,1,1,221,1,200,294,1,1,140,1,238,262,262,262,185,1,1,307,3,1,1,1,1,1,1,1,330,1,1,1,1,252,252,252,252,252,252,
252,252,252,252,1,1,382,356,122,126,99,1,1,138,140,1,100,1,1,1,91,1,91,1,316,315,290,291,292,293,291,294,316,1,1,140,1,262,262,238,1,1,1,94,26,30,1,1,1,1,1,1,1,330,1,1,1,1,252,252,252,252,252,252,
252,252,252,252,1,1,1,381,1,146,1,1,1,138,140,1,1,1,1,1,91,1,91,1,1,1,1,315,307,1,1,139,1,1,1,140,1,1,1,262,1,1,1,84,122,126,95,1,1,1,1,1,1,306,1,1,1,1,252,252,252,252,252,252,
252,252,252,252,1,1,1,1,1,1,1,1,1,138,140,1,309,1,1,1,90,1,91,1,1,139,139,1,307,1,96,139,139,139,139,140,1,1,252,252,252,252,252,84,147,93,84,1,1,1,1,1,1,306,1,1,1,1,252,252,252,252,252,252,
252,252,252,252,1,1,1,1,1,330,1,68,68,69,67,69,67,1,1,1,91,308,91,1,1,139,167,1,307,1,84,139,1,1,1,140,1,1,1,1,1,1,1,84,1,93,84,1,1,1,1,1,1,330,1,1,1,1,252,252,252,252,252,252,
252,252,252,252,1,1,1,1,1,354,1,1,1,1,1,1,1,1,1,1,91,1,91,1,1,1,167,167,307,1,84,165,165,48,165,140,13,11,13,1,1,1,1,84,1,93,84,1,1,1,308,1,1,354,1,1,1,1,252,252,252,252,252,252,
252,252,252,252,1,1,1,1,1,306,1,1,1,1,1,1,1,1,1,68,67,67,67,67,1,1,1,370,374,1,84,1,370,371,372,371,372,27,29,28,29,30,66,84,67,67,84,1,11,12,1,1,1,330,1,1,1,1,252,252,252,252,252,252,
252,252,252,252,1,1,1,1,1,306,1,1,1,1,1,185,1,1,1,1,1,1,1,1,1,1,330,418,78,84,84,84,74,1,1,1,1,1,1,53,1,54,1,84,1,1,84,26,371,372,374,1,1,354,1,1,1,1,252,252,252,252,252,252,
252,252,252,252,1,1,1,1,1,354,1,1,1,1,1,1,1,339,1,1,1,1,1,1,1,1,354,394,56,27,27,27,57,1,124,125,124,125,124,124,33,254,84,84,84,84,84,226,1,1,446,1,214,330,214,1,1,1,252,252,252,252,252,252,
252,252,252,252,1,1,1,1,1,306,340,1,11,11,13,11,341,362,35,28,28,28,30,1,1,381,330,418,1,395,395,152,152,102,76,76,76,421,75,75,98,278,1,1,1,1,1,250,1,1,422,66,69,68,67,70,210,1,252,252,252,252,252,252,
252,252,252,252,1,1,1,1,362,363,363,363,365,364,365,364,363,393,1,1,1,52,62,66,357,358,354,394,1,1,1,1,1,102,76,84,84,84,84,84,74,278,1,180,1,1,1,274,1,1,422,357,356,356,1,1,1,1,252,252,252,252,252,252,
252,252,252,252,1,1,1,1,386,1,1,1,208,300,301,301,299,301,301,300,209,1,414,357,358,382,354,442,1,397,419,1,1,54,76,84,26,28,27,29,57,204,204,203,205,204,204,205,233,1,446,356,358,356,1,1,1,1,252,252,252,252,252,252,
252,252,252,252,1,1,1,1,386,212,1,1,278,1,1,387,1,1,1,1,274,211,438,1,357,358,370,401,419,395,419,32,292,294,75,84,50,124,125,469,468,377,1,1,1,1,1,1,1,1,398,1,1,1,1,1,1,1,252,252,252,252,252,252,
252,252,252,252,1,1,1,1,434,1,1,1,230,1,1,1,1,1,1,1,226,1,414,163,163,163,418,395,419,419,419,78,307,1,1,84,122,126,357,358,201,466,469,467,469,469,468,468,468,467,470,1,1,1,1,1,1,1,252,252,252,252,252,252,
252,252,252,252,1,1,1,1,458,461,461,211,232,205,206,1,179,1,1,1,274,1,212,1,1,1,394,395,419,419,419,446,1,1,1,84,1,307,356,358,1,1,1,1,1,91,1,90,1,1,1,1,1,1,1,1,1,1,252,252,252,252,252,252,
252,252,252,252,1,1,1,1,457,483,1,410,413,227,232,204,203,205,205,205,233,1,438,115,115,115,466,467,467,469,468,470,1,1,84,84,1,307,1,1,1,1,1,1,445,91,1,91,1,1,1,1,1,1,1,1,1,1,252,252,252,252,252,252,
252,252,252,252,1,1,1,1,1,1,1,410,380,387,368,131,123,293,293,292,125,133,462,1,1,1,1,1,1,307,1,1,1,1,84,84,1,307,1,252,1,445,445,445,445,114,115,116,1,1,1,1,1,1,1,1,1,1,252,252,252,252,252,252,
252,252,252,252,1,1,1,1,1,1,1,434,1,380,414,1,307,1,315,1,307,1,1,1,1,1,1,1,1,1,1,1,1,1,84,84,285,307,1,1,1,1,1,1,252,138,139,140,1,1,445,1,1,1,1,1,1,1,252,252,252,252,252,252,
252,252,252,252,1,1,1,1,1,1,1,458,460,460,462,1,307,1,1,1,307,1,1,1,1,1,1,1,1,1,1,1,1,1,84,84,1,307,1,1,1,252,1,1,1,162,163,164,1,1,1,1,1,1,1,1,1,1,252,252,252,252,252,252,
252,252,252,252,1,1,1,1,1,1,1,1,1,1,1,1,307,1,1,1,307,1,1,1,1,1,1,1,1,1,1,1,1,1,84,84,1,307,1,1,1,1,1,1,1,1,1,1,1,1,1,1,1,1,1,1,1,1,252,252,252,252,252,252,
252,252,252,252,1,1,1,1,1,1,1,1,1,1,1,1,307,1,215,1,307,1,1,1,1,1,1,1,1,1,1,1,1,1,1,84,1,307,1,1,1,1,1,1,1,1,1,1,1,1,1,1,1,1,1,1,1,1,252,252,252,252,252,252,
252,252,252,252,1,1,1,1,1,1,1,1,1,1,1,1,307,1,1,1,307,1,1,1,1,1,1,1,1,1,1,1,354,1,1,214,1,307,1,1,1,1,1,1,1,1,1,1,1,1,1,1,1,1,1,1,1,1,252,252,252,252,252,252,
252,252,252,252,1,1,1,1,1,1,1,1,1,1,1,67,67,68,69,67,67,69,15,1,1,1,1,1,1,1,1,1,306,67,68,67,67,68,1,1,1,1,1,282,1,1,1,1,1,1,1,1,1,1,1,1,1,1,252,252,252,252,252,252,
252,252,252,252,1,1,1,1,1,1,1,1,1,1,1,1,1,1,1,1,1,1,1,1,1,1,1,1,1,1,1,1,330,1,1,1,1,1,1,1,1,1,1,283,1,1,1,1,1,1,1,1,1,1,1,1,1,1,252,252,252,252,252,252,
252,252,252,252,1,1,1,1,1,1,1,1,1,1,1,1,1,1,1,1,1,1,1,1,1,1,1,1,1,1,1,1,354,1,1,1,1,1,1,1,1,1,283,282,1,1,1,1,1,1,1,1,1,1,1,1,305,1,252,252,252,252,252,252
</data>
 </layer>
 <layer id="2" name="Colliders" width="64" height="32" visible="0" opacity="0.5" tintcolor="#ff0000">
  <properties>
   <property name="IsCollidable" type="bool" value="true"/>
  </properties>
  <data encoding="csv">
0,0,0,0,0,0,0,0,0,0,0,0,0,0,0,0,0,0,0,0,0,0,0,0,0,0,0,0,0,0,0,0,0,0,0,0,0,0,0,0,0,0,0,0,0,0,0,0,0,0,0,0,0,0,0,0,0,0,0,0,0,0,0,0,
0,0,0,0,0,0,0,0,0,0,0,0,0,0,0,0,0,0,0,0,0,0,0,0,0,0,0,0,0,0,0,0,0,0,0,0,0,0,0,0,0,0,0,0,0,0,0,0,0,0,0,0,0,0,0,0,0,0,0,0,0,0,0,0,
0,0,0,0,0,0,0,0,0,0,0,0,0,0,0,0,0,0,0,0,0,0,0,0,0,0,0,0,0,0,0,0,0,0,0,0,0,0,0,0,0,0,0,0,0,0,0,0,0,0,0,0,0,0,0,0,0,0,0,0,0,0,0,0,
0,0,0,0,0,0,0,0,0,0,0,0,0,0,0,0,0,0,0,0,0,0,0,0,0,0,0,0,0,0,0,0,0,0,0,0,0,0,0,0,0,0,0,0,0,0,0,0,0,0,0,0,0,0,0,0,0,0,0,0,0,0,0,0,
0,0,0,0,0,0,0,0,0,0,0,0,0,0,0,0,0,0,0,0,0,0,0,0,0,0,0,0,0,0,0,0,0,0,0,0,0,0,0,0,0,0,0,0,0,0,0,0,0,0,0,0,0,0,0,0,0,0,0,0,0,0,0,0,
0,0,0,0,0,0,0,0,0,0,0,0,0,0,0,0,0,0,0,0,0,0,0,0,0,0,0,0,0,0,0,0,0,0,0,0,0,0,0,0,0,0,0,0,0,0,0,0,0,0,0,0,0,0,0,0,0,0,0,0,0,0,0,0,
0,0,0,0,0,0,0,0,0,0,0,0,0,0,0,0,0,0,0,0,0,0,0,0,0,0,0,0,0,0,0,0,0,0,0,0,0,0,0,0,0,0,0,0,0,0,0,0,0,0,0,0,0,0,0,0,0,0,0,0,0,0,0,0,
0,0,0,0,0,0,0,0,0,0,0,0,0,0,0,0,0,0,0,0,0,0,0,0,0,0,0,0,0,0,0,0,0,0,0,0,0,0,0,0,0,0,0,0,0,0,0,0,0,0,0,0,0,0,0,0,0,0,0,0,0,0,0,0,
0,0,0,0,0,0,0,0,0,0,0,0,0,0,0,0,0,0,0,0,0,0,0,0,0,0,0,0,0,0,0,0,0,0,0,0,0,0,0,0,0,0,0,0,0,0,0,0,0,0,0,0,0,0,0,0,0,0,0,0,0,0,0,0,
0,0,0,0,0,0,0,0,0,0,0,0,0,0,0,0,0,0,0,0,0,0,0,0,0,0,0,0,0,0,0,0,0,0,0,0,0,0,0,0,0,0,0,0,0,0,0,0,0,0,0,0,0,0,0,0,0,0,0,0,0,0,0,0,
0,0,0,0,0,0,0,0,0,0,0,0,0,0,0,0,0,0,0,0,0,0,0,0,0,0,0,0,0,0,0,0,0,0,0,0,0,0,0,0,0,0,0,0,0,0,0,0,0,0,0,0,0,0,0,0,0,0,0,0,0,0,0,0,
0,0,0,0,0,0,0,0,0,0,0,0,0,0,0,0,0,0,0,0,0,0,0,0,0,0,0,0,0,0,0,0,0,0,0,0,0,0,0,0,0,0,0,0,0,0,0,0,0,0,0,0,0,0,0,0,0,0,0,0,0,0,0,0,
0,0,0,0,0,0,0,0,0,0,0,0,0,0,0,0,0,0,0,0,0,0,0,0,0,0,0,0,0,0,0,0,0,0,0,0,0,0,0,0,0,0,0,0,0,0,0,0,0,0,0,0,0,0,0,0,0,0,0,0,0,0,0,0,
0,0,0,0,0,0,0,0,0,0,0,0,0,0,0,0,0,0,0,0,0,0,0,0,0,0,0,211,211,0,0,0,211,211,211,211,211,211,211,211,211,211,0,0,0,0,0,0,0,0,0,0,0,0,0,0,0,0,0,0,0,0,0,0,
0,0,0,0,0,0,0,0,0,0,0,0,0,0,0,0,0,0,0,0,0,0,0,0,0,0,0,211,211,0,0,0,211,0,0,0,0,0,0,0,0,211,0,0,0,0,0,211,211,211,211,0,0,0,0,0,0,0,0,0,0,0,0,0,
0,0,0,0,0,0,0,0,0,0,0,0,0,0,0,0,0,0,0,0,0,0,0,0,0,0,0,211,211,211,211,211,211,211,211,211,211,211,211,211,211,211,0,0,0,0,0,211,0,0,211,0,0,0,0,0,0,0,0,0,0,0,0,0,
0,0,0,0,0,0,0,0,0,0,0,0,0,0,0,0,0,211,211,211,211,211,211,0,0,0,0,211,0,0,0,0,0,211,0,0,0,0,0,0,211,211,0,0,0,0,0,211,0,0,211,211,211,211,211,211,211,0,0,0,0,0,0,0,
0,0,0,0,0,0,0,0,211,211,211,211,211,211,211,211,211,211,0,0,0,0,211,0,0,0,0,211,0,0,0,0,0,211,0,0,0,0,0,0,211,211,0,0,0,0,0,211,0,0,211,0,0,0,0,0,0,0,0,0,0,0,0,0,
0,0,0,0,0,0,0,0,211,0,0,0,0,0,0,0,0,0,0,0,0,0,211,0,0,0,0,211,0,0,0,0,0,211,0,0,211,211,211,211,211,211,211,211,211,211,211,211,0,0,211,0,0,0,0,0,0,0,0,0,0,0,0,0,
0,0,0,0,0,0,0,0,211,0,0,0,0,0,0,0,0,0,0,0,0,0,211,0,0,0,211,211,0,0,0,211,211,211,0,0,211,211,211,211,211,211,0,0,0,0,0,0,0,0,211,0,0,0,0,0,0,0,0,0,0,0,0,0,
0,0,0,0,0,0,0,0,211,0,0,0,0,0,0,0,0,0,0,0,0,0,211,0,0,0,211,0,0,0,0,211,0,0,0,0,211,211,0,0,0,211,211,211,211,211,211,211,211,211,211,0,0,0,0,0,0,0,0,0,0,0,0,0,
0,0,0,0,0,0,0,0,211,211,211,211,0,0,0,0,0,0,0,0,0,0,211,0,0,0,211,0,0,0,0,211,0,0,0,0,0,0,0,0,0,0,0,0,0,0,0,0,0,0,0,0,0,0,0,0,0,0,0,0,0,0,0,0,
0,0,0,0,0,0,0,0,0,0,0,211,0,0,0,0,0,0,0,0,0,0,211,0,0,0,211,211,211,211,211,211,0,0,0,0,0,0,0,0,0,0,0,0,0,0,0,0,0,0,0,0,0,0,0,0,0,0,0,0,0,0,0,0,
0,0,0,0,0,0,0,0,0,0,0,211,0,0,211,211,211,211,211,211,211,211,211,0,0,0,0,0,0,0,0,0,0,0,0,0,0,0,0,0,0,0,0,0,0,0,0,0,0,0,0,0,0,0,0,0,0,0,0,0,0,0,0,0,
0,0,0,0,0,0,0,0,0,0,0,211,0,0,211,0,0,0,0,0,0,0,0,0,0,0,0,0,0,0,0,0,0,0,0,0,0,0,0,0,0,0,0,0,0,0,0,0,0,0,0,0,0,0,0,0,0,0,0,0,0,0,0,0,
0,0,0,0,0,0,0,0,0,0,0,211,211,211,211,0,0,0,0,0,0,0,0,0,0,0,0,0,0,0,0,0,0,0,0,0,0,0,0,0,0,0,0,0,0,0,0,0,0,0,0,0,0,0,0,0,0,0,0,0,0,0,0,0,
0,0,0,0,0,0,0,0,0,0,0,0,0,0,0,0,0,0,0,0,0,0,0,0,0,0,0,0,0,0,0,0,0,0,0,0,0,0,0,0,0,0,0,0,0,0,0,0,0,0,0,0,0,0,0,0,0,0,0,0,0,0,0,0,
0,0,0,0,0,0,0,0,0,0,0,0,0,0,0,0,0,0,0,0,0,0,0,0,0,0,0,0,0,0,0,0,0,0,0,0,0,0,0,0,0,0,0,0,0,0,0,0,0,0,0,0,0,0,0,0,0,0,0,0,0,0,0,0,
0,0,0,0,0,0,0,0,0,0,0,0,0,0,0,0,0,0,0,0,0,0,0,0,0,0,0,0,0,0,0,0,0,0,0,0,0,0,0,0,0,0,0,0,0,0,0,0,0,0,0,0,0,0,0,0,0,0,0,0,0,0,0,0,
0,0,0,0,0,0,0,0,0,0,0,0,0,0,0,0,0,0,0,0,0,0,0,0,0,0,0,0,0,0,0,0,0,0,0,0,0,0,0,0,0,0,0,0,0,0,0,0,0,0,0,0,0,0,0,0,0,0,0,0,0,0,0,0,
0,0,0,0,0,0,0,0,0,0,0,0,0,0,0,0,0,0,0,0,0,0,0,0,0,0,0,0,0,0,0,0,0,0,0,0,0,0,0,0,0,0,0,0,0,0,0,0,0,0,0,0,0,0,0,0,0,0,0,0,0,0,0,0,
0,0,0,0,0,0,0,0,0,0,0,0,0,0,0,0,0,0,0,0,0,0,0,0,0,0,0,0,0,0,0,0,0,0,0,0,0,0,0,0,0,0,0,0,0,0,0,0,0,0,0,0,0,0,0,0,0,0,0,0,0,0,0,0
</data>
 </layer>
 <objectgroup id="3" name="particles">
  <object id="1" x="698.5" y="132.5">
   <properties>
    <property name="emitter_rate" type="int" value="10"/>
    <property name="emitter_type" value="water"/>
   </properties>
   <point/>
  </object>
  <object id="2" x="738.5" y="147">
   <properties>
    <property name="emitter_rate" type="int" value="10"/>
    <property name="emitter_type" value="water"/>
   </properties>
   <point/>
  </object>
  <object id="3" x="487.5" y="167">
   <properties>
    <property name="emitter_rate" type="int" value="10"/>
    <property name="emitter_type" value="lava"/>
   </properties>
   <point/>
  </object>
  <object id="4" x="631.5" y="270.5">
   <properties>
    <property name="emitter_rate" type="int" value="10"/>
    <property name="emitter_type" value="water"/>
   </properties>
   <point/>
  </object>
 </objectgroup>
 <objectgroup id="4" name="lights">
  <object id="5" name="torch" x="376" y="6">
   <properties>
    <property name="light_colour" type="color" value="#ffff9a4d"/>
    <property name="light_flicker" type="float" value="0.3"/>
    <property name="light_glow" type="float" value="0.35"/>
    <property name="light_intensity" type="float" value="1.5"/>
    <property name="light_radius" type="float" value="150"/>
   </properties>
   <point/>
  </object>
  <object id="6" name="torch" x="632" y="6">
   <properties>
    <property name="light_colour" type="color" value="#ffff9a4d"/>
    <property name="light_flicker" type="float" value="0.3"/>
    <property name="light_glow" type="float" value="0.35"/>
    <property name="light_intensity" type="float" value="1.5"/>
    <property name="light_radius" type="float" value="150"/>
   </properties>
   <point/>
  </object>
  <object id="7" name="torch" x="344" y="182">
   <properties>
    <property name="light_colour" type="color" value="#ffff9a4d"/>
    <property name="light_flicker" type="float" value="0.3"/>
    <property name="light_glow" type="float" value="0.35"/>
    <property name="light_intensity" type="float" value="1.5"/>
    <property name="light_radius" type="float" value="150"/>
   </properties>
   <point/>
  </object>
  <object id="8" name="torch" x="808" y="198">
   <properties>
    <property name="light_colour" type="color" value="#ffff9a4d"/>
    <property name="light_flicker" type="float" value="0.3"/>
    <property name="light_glow" type="float" value="0.35"/>
    <property name="light_intensity" type="float" value="1.5"/>
    <property name="light_radius" type="float" value="150"/>
   </properties>
   <point/>
  </object>
 </objectgroup>
</map>
